X:1
T:Salt Creek
L:1/8
M:4/4
I:linebreak $
K:D
V:1 treble
V:1
|: "A"[Ae]2 [Ae][Ae] [Ae]2 AB | cABc"D" [Fd]4 |"G" BA G2 BA G2 | BAGF "E"E2 EF |$
   "A"[Ae]2 [Ae][Ae] [Ae]2 AB | cABc "D"[Fd]4 | "G"e a2 b afed |"E" cABc "A"[Ae]4 ::$
 "A"[ca]2 [ca][ca] [ca]2 ef |  aegf ef e2 |"G" [Bg]2 [Bg][Bg] [Bg]2 de | g2 ga gf e2 |$
 "A"[ca]2 [ca][ca] [ca]2 ef | aegf ef e2  |"G"  gagf efed |"E" cABc "A"[Ae]4 :|
